X:47
T:Polska efter Bengt Bixo
T:(SvL Jämtland 47)
S:Bengt Bixo
B:Svenska Låtar Jämtland
R:Polska
O:Mörsil, Jämtland
M:3/4
L:1/8
K:G
G>c G2 c2|B(A/B/) cG EC|D>g d2 g2|(fe/f/) g(d B)G|
G>c G2 c2|B(A/B/) cG EC|D>g D2 g>b|(3a(gf) g4:|
K:C
|:vg2 {/a}(gf/g/) a2|(3f(gf) eg (3f(ed)|c2 {/d}(3c(BA) (3G(AB)|c2 eg gc'|
g2 {/a}(gf/g/) a2|f2 eg (3f(ed)|c>d (3c(BA) (3G(AB)|(B>c) c4:|

